!!!!SEGMENT: pl-kk--kk-i-1--023_anonim--pro-graduali-alleluia-assumpta-es.krn
!!!cenid: 15xx:736
!!!COM: Anonim
!!!COM-rismid: pe30004985
!!!CDT:
!!!CNT:
!!!OTL: Pro Graduali/Alleluia, Assumpta es
!!!PDT:
!!!AGN:
!!!SMS-siglum: PL-Kk
!!!SMS-shelfmark: Kk.I.1
!!!SMS-shelfwork: 023 W
!!!SMS-variant:
!!!SMS-altvar:
!!!NIFC-rismid: 300257977
!!!URL-scan: http://repozytorium.nifc.pl/skany/pl-kk-nut--i-1
!!!ONB-nifc: UWAGA: Cantus (s. 109r-110r, skan 0111-0112), Altus (s. 104r-105r, skan 0297-0298), Tenor (s. 96r-v, skan 0486-0487), Bassus (brak).
**kern	**kern	**text	**kern	**text	**kern	**text
*part4	*part3	*part3	*part2	*part2	*part1	*part1
*staff4	*staff3	*staff3	*staff2	*staff2	*staff1	*staff1
*Iempty	*Itenor	*	*Iempty	*	*Iempty	*
*I"BASSVS	*I"TENOR	*	*I"ALTVS	*	*I"CANTVS	*
*I'B	*I'T	*	*I'A	*	*I'C	*
*ICvox	*ICvox	*	*ICvox	*	*ICvox	*
*clefF4	*clefC5	*	*clefC5	*	*clefC3	*
*k[]	*k[]	*	*k[]	*	*k[]	*
*C:	*C:	*	*C:	*	*C:	*
*M2/1	*M2/1	*	*M2/1	*	*M2/1	*
*met(C|)	*met(C|)	*	*met(C|)	*	*met(C|)	*
=1-	=1-	=1-	=1-	=1-	=1-	=1-
*	*lig	*	*	*	*	*
!LO:TX:t=P:problem:brak partii basu	!LO:TX:a:i:t=Pro Graduali.	!	!LO:TX:a:i:t=Pro Graduali.	!	!LO:TX:a:i:t=Pro Graduali.	!
0ryy	1C/	Al-	0G\	Al-	1c\	Al-
.	1D/	.	.	.	2B/	-le-
.	.	.	.	.	1d\	.
*	*Xlig	*	*	*	*	*
=2-	=2-	=2-	=2-	=2-	=2-	=2-
0ryy	0F\	-le-	2F/	-le-	.	.
.	.	.	1A\	.	4c/	.
!	!	!	!	!	!LO:TX:t=P:problem:kreska pseudotaktowa	!
.	.	.	.	.	4B/	.
.	.	.	.	.	2A/	.
.	.	.	4G/	.	2B/	.
!	!	!	!LO:TX:t=P:problem:kreska pseudotaktowa	!	!	!
.	.	.	4F/	.	.	.
=3-	=3-	=3-	=3-	=3-	=3-	=3-
0ryy	1G\	.	1.E/	.	2c/	.
.	.	.	.	.	2.e\	.
*	*lig	*	*	*	*	*
.	1A\	.	.	.	.	.
.	.	.	.	.	4d\	.
.	.	.	2F/	.	1d\	.
=4-	=4-	=4-	=4-	=4-	=4-	=4-
0ryy	1G\	.	1G\	-lu-	.	.
.	.	.	.	.	2c/	.
!	!	!	!	!	!LO:TX:t=P:problem:kreska pseudotaktowa	!
*	*Xlig	*	*	*	*	*
!	!	!	!LO:TX:t=P:problem:kreska pseudotaktowa	!	!	!
.	1A\	.	1F\	-ia,	2d\	.
.	.	.	.	.	1f\	.
=5-	=5-	=5-	=5-	=5-	=5-	=5-
*	*lig	*	*	*	*	*
0ryy	1A\	-lu-	2r	.	.	.
*	*	*	*	*ij	*	*
.	.	.	2F/	al-	4e\	.
!	!	!	!	!	!LO:TX:t=P:problem:kreska pseudotaktowa	!
.	.	.	.	.	4d\	.
!	!	!	!	!	!LO:SIC:v:t=custos a	!
.	1c\	.	2G/	.	2e\	.
!	!	!	!	!	!LO:LB:g=original	!
.	.	.	2A\	.	1a\	.
*	*Xlig	*	*	*	*	*
=6-	=6-	=6-	=6-	=6-	=6-	=6-
*	*lig	*	*	*	*	*
!	!	!	!LO:SIC:v:t=custos G	!	!	!
!	!	!	!LO:TX:t=P:problem:kreska pseudotaktowa	!	!	!
0ryy	1A\	.	1F\	.	.	.
.	.	.	.	.	4g\	.
!	!	!	!	!	!LO:TX:t=P:problem:kreska pseudotaktowa	!
.	.	.	.	.	4f\	.
!	!	!	!LO:LB:g=original	!	!	!
*	*	*	*clefC4	*	*	*
.	1c\	.	2.G/	-le-	1e\	.
.	.	.	4A/	.	.	.
!	!	!	!LO:TX:t=P:problem:kreska pseudotaktowa	!	!	!
*	*Xlig	*	*	*	*	*
=7-	=7-	=7-	=7-	=7-	=7-	=7-
0ryy	1B\	.	4B\	.	2d\	.
.	.	.	4c\	.	.	.
.	.	.	1.d\	-lu-	1g\	.
.	1A\	.	.	.	.	.
.	.	.	.	.	2f\	-lu-
=8-	=8-	=8-	=8-	=8-	=8-	=8-
!	!LO:TX:t=P:problem:kreska pseudotaktowa	!	!	!	!	!
!	!LO:TX:t=P:problem:znak zakończenia po odśpiewaniu wersetu i powrocie na Alleluja. 	!	!LO:TX:t=P:problem:znak zakończenia po odśpiewaniu wersetu i powrocie na Alleluja. 	!	!LO:TX:t=P:problem:znak zakończenia po odśpiewaniu wersetu i powrocie na Alleluja. 	!
0ryy	1G\	-ia	1B\	-ia	1g\	-ia
*	*lig	*	*	*	*	*
!	!	!	!LO:TX:t=P:problem:kreska pseudotaktowa	!	!	!
.	1G\	.	1c\	al-	0.e\	.
=9-	=9-	=9-	=9-	=9-	=9-	=9-
0ryy	1A\	.	2.c\	-le-	.	.
.	.	.	4B\	.	.	.
!	!	!	!LO:TX:t=P:problem:kreska pseudotaktowa	!	!	!
*	*Xlig	*	*	*	*	*
*	*lig	*	*	*	*	*
.	1c\	.	2A/	.	.	.
!	!	!	!LO:TX:t=P:problem:kreska pseudotaktowa	!	!	!
.	.	.	2G/	.	.	.
=10-	=10-	=10-	=10-	=10-	=10-	=10-
!	!	!	!	!	!LO:TX:t=P:problem:kreska pseudotaktowa	!
0ryy	1A\	.	2F/	.	1d\	.
.	.	.	1G/	-lu-	.	.
*	*Xlig	*	*	*	*	*
.	1c\	.	.	.	1r	.
!	!	!	!LO:TX:t=P:problem:kreska pseudotaktowa	!	!	!
.	.	.	2F/	.	.	.
=11-	=11-	=11-	=11-	=11-	=11-	=11-
0ryy	1B\	.	1G/	-ia	2r	.
!	!	!	!	!	!LO:TX:t=P:problem:kreska pseudotaktowa	!
.	.	.	.	.	2d\	al-
!	!LO:SIC:v:t=custos G	!	!	!	!	!
.	1A\	.	1D/	.	1.d\	-le-
!	!LO:LB:g=original	!	!	!	!	!
=12-	=12-	=12-	=12-	=12-	=12-	=12-
0ryy	1G\	.	2d\	al-	.	.
.	.	.	2B\	.	2e\	.
.	1F\	.	0c\	-le-	2.f\	.
!	!	!	!	!	!LO:TX:t=P:problem:kreska pseudotaktowa	!
.	.	.	.	.	4e\	.
=13-	=13-	=13-	=13-	=13-	=13-	=13-
*	*lig	*	*	*	*	*
0ryy	1A\	.	.	.	4f\	.
.	.	.	.	.	4g\	.
.	.	.	.	.	1a\	.
!	!	!	!LO:SIC:v:t=custos B	!	!	!
.	1F\	.	1d\	.	.	.
.	.	.	.	.	4g\	.
!	!	!	!	!	!LO:SIC:v:t=custos e	!
!	!	!	!	!	!LO:TX:t=P:problem:kreska pseudotaktowa	!
.	.	.	.	.	4f\	.
*	*Xlig	*	*	*	*	*
!	!	!	!LO:LB:g=original	!	!LO:LB:g=original	!
=14-	=14-	=14-	=14-	=14-	=14-	=14-
*	*lig	*	*	*	*	*
!	!	!	!LO:TX:t=P:problem:kreska pseudotaktowa	!	!	!
0ryy	1G\	.	1B\	.	2.e\	.
.	.	.	.	.	4f\	.
.	1E/	.	2c\	.	1g\	-lu-
.	.	.	1e\	.	.	.
*	*Xlig	*	*	*	*	*
=15-	=15-	=15-	=15-	=15-	=15-	=15-
!	!	!	!	!	!LO:TX:t=P:problem:kreska pseudotaktowa	!
0ryy	1F\	.	.	.	1a\	-ia,
.	.	.	4d\	.	.	.
.	.	.	4c\	.	.	.
*	*	*	*	*	*	*ij
.	0G\	.	2.B\	.	1.d\	al-
!	!	!	!LO:TX:t=P:problem:kreska pseudotaktowa	!	!	!
.	.	.	4c\	.	.	.
=16-	=16-	=16-	=16-	=16-	=16-	=16-
0ryy	.	.	2d\	.	.	.
.	.	.	1c\	.	2e\	.
.	1F\	.	.	.	2f\	.
!	!	!	!LO:TX:t=P:problem:kreska pseudotaktowa	!	!LO:TX:t=P:problem:kreska pseudotaktowa	!
.	.	.	2B\	.	2d\	.
=17-	=17-	=17-	=17-	=17-	=17-	=17-
0ryy	1E/	.	2c\	-lu-	2e\	.
.	.	.	1.G/	.	1c\	.
.	1D/	.	.	.	.	.
!	!	!	!	!	!LO:TX:t=P:problem:kreska pseudotaktowa	!
.	.	.	.	.	2B/	.
=18-	=18-	=18-	=18-	=18-	=18-	=18-
!	!	!	!LO:TX:t=P:problem:kreska pseudotaktowa	!	!	!
0ryy	1C/	.	1E/	-ia	2c/	.
*	*	*	*	*Xij	*	*
.	.	.	.	.	2e\	.
.	1D/	.	2r	.	2d\	.
!	!	!	!LO:TX:t=P:problem:kreska pseudotaktowa	!	!	!
.	.	.	2A/	al-	1f\	-le-
=19-	=19-	=19-	=19-	=19-	=19-	=19-
0ryy	0F\	.	4F/	-le-	.	.
.	.	.	4G/	.	.	.
!	!	!	!LO:TX:t=P:problem:kreska pseudotaktowa	!	!LO:TX:t=P:problem:kreska pseudotaktowa	!
.	.	.	2A/	.	2e\	.
.	.	.	2D/	.	2d\	.
.	.	.	1F/	.	2c/	.
=20-	=20-	=20-	=20-	=20-	=20-	=20-
*	*lig	*	*	*	*	*
!	!	!	!	!	!LO:TX:t=P:problem:kreska pseudotaktowa	!
0ryy	1G\	.	.	.	1B-X/	.
!	!	!	!LO:SIC:v:t=custos F	!	!	!
.	.	.	2E/	-lu-	.	.
!	!	!	!LO:LB:g=original	!	!	!
.	1A\	.	1F/	.	2A/	.
.	.	.	.	.	2c/	.
*	*Xlig	*	*	*	*	*
=21-	=21-	=21-	=21-	=21-	=21-	=21-
0ryy	1G\	.	1C/	-ia	2.c/	-lu-
!	!	!	!	!	!LO:SIC:v:t=custos A	!
.	.	.	.	.	4Bny/	.
!	!	!	!	!	!LO:LB:g=original	!
.	1F\	.	1r	.	2A/	.
.	.	.	.	.	2.a\	-ia
*	*	*	*	*	*	*Xij
=22-	=22-	=22-	=22-	=22-	=22-	=22-
0ryy	1E/	.	2r	.	.	.
.	.	.	.	.	4g\	.
.	.	.	2G/	al-	4e\	.
!	!	!	!	!	!LO:TX:t=P:problem:kreska pseudotaktowa	!
.	.	.	.	.	4f\	.
*	*lig	*	*	*	*	*
.	1D/	.	1G/	-le-	2.g\	.
.	.	.	.	.	4f\	.
=23-	=23-	=23-	=23-	=23-	=23-	=23-
0ryy	1E/	.	0G/	-lu-	4e\	.
.	.	.	.	.	4d\	.
.	.	.	.	.	1c\	.
*	*Xlig	*	*	*	*	*
*	*lig	*	*	*	*	*
.	1D/	.	.	.	.	.
.	.	.	.	.	2B/	.
=24-	=24-	=24-	=24-	=24-	=24-	=24-
0ryy	1C/	.	0Gl\;	-ia	0cl\;	.
*	*Xlig	*	*	*	*	*
!	!LO:SIC:v:t=custos C	!	!	!	!	!
.	1Cl/	.	.	.	.	.
!	!LO:LB:g=original	!	!	!	!	!
=25||	=25||	=25||	=25||	=25||	=25||	=25||
*	*	*	*M2/2	*	*	*
*	*	*	*met(C|)	*	*	*
*	*lig	*	*	*	*lig	*
0ryy	1C/	As-	2.c\	Aſ-	1e\	Aſ-
.	.	.	4B\	.	.	.
.	1D/	.	2A/	-sum-	1f\	.
.	.	.	2d\	.	.	.
!	!	!	!LO:TX:t=P:problem:kreska pseudotaktowa	!	!	!
*	*Xlig	*	*	*	*Xlig	*
=26-	=26-	=26-	=26-	=26-	=26-	=26-
0ryy	1E/	.	2B\	.	2g\	-sum-
.	.	.	1c\	.	1a\	.
*	*lig	*	*	*	*	*
.	1F\	-sum-	.	.	.	.
!	!	!	!LO:TX:t=P:problem:kreska pseudotaktowa	!	!	!
.	.	.	2B\	-pta	4g\	-pta
!	!	!	!	!	!LO:TX:t=P:problem:kreska pseudotaktowa	!
.	.	.	.	.	4f\	.
=27-	=27-	=27-	=27-	=27-	=27-	=27-
0ryy	1G\	.	2c\	eſt	2e\	.
*	*	*	*	*ij	*	*
.	.	.	4G/	aſ-	1g\	.
.	.	.	4A/	.	.	.
!	!	!	!LO:TX:t=P:problem:kreska pseudotaktowa	!	!	!
*	*Xlig	*	*	*	*	*
*	*lig	*	*	*	*	*
.	1G\	-pta	4B\	.	.	.
!	!	!	!LO:SIC:v:t=custos d	!	!	!
.	.	.	4c\	.	.	.
!	!	!	!LO:PB:g=original	!	!	!
.	.	.	2.d\	-sum-	4f\	.
!	!	!	!	!	!LO:SIC:v:t=custos d	!
!	!	!	!	!	!LO:TX:t=P:problem:kreska pseudotaktowa	!
.	.	.	.	.	4e\	.
!	!	!	!	!	!LO:PB:g=original	!
=28-	=28-	=28-	=28-	=28-	=28-	=28-
0ryy	1F\	.	.	.	1d\	.
.	.	.	4c\	.	.	.
.	.	.	4A/	.	.	.
.	.	.	4B/	.	.	.
!	!	!	!LO:TX:t=P:problem:kreska pseudotaktowa	!	!	!
*	*Xlig	*	*	*	*	*
*	*lig	*	*	*	*	*
.	1E/	.	2c\	.	2e\	.
.	.	.	2G/	-pta	1c\	.
=29-	=29-	=29-	=29-	=29-	=29-	=29-
!	!	!	!LO:TX:t=P:problem:kreska pseudotaktowa	!	!	!
0ryy	1D/	.	1G/	eſt	.	.
*	*	*	*	*Xij	*	*
.	.	.	.	.	2B/	eſt
!	!	!	!	!	!LO:TX:t=P:problem:kreska pseudotaktowa	!
*	*Xlig	*	*	*	*	*
*	*lig	*	*	*	*	*
.	1C/	.	2r	.	2c/	.
.	.	.	2c\	.	2.g\	.
=30-	=30-	=30-	=30-	=30-	=30-	=30-
0ryy	1G\	.	2B\	.	.	.
.	.	.	.	.	4e\	.
.	.	.	2c\	.	1g\	.
!	!	!	!LO:TX:t=P:problem:kreska pseudotaktowa	!	!	!
*	*Xlig	*	*	*	*	*
*	*lig	*	*	*	*	*
.	1A\	est	1d\	.	.	.
!	!	!	!	!	!LO:TX:t=P:problem:kreska pseudotaktowa	!
.	.	.	.	.	2f\	.
=31-	=31-	=31-	=31-	=31-	=31-	=31-
!	!LO:TX:t=P:problem:kreska pseudotaktowa	!	!	!	!	!
0ryy	1G\	.	2B/	.	2g\	.
.	.	.	1c\	Ma-	2.e\	.
*	*Xlig	*	*	*	*	*
.	1G\	Ma-	.	.	.	.
.	.	.	.	.	4d\	Ma-
.	.	.	4B\	.	1d\	-ri-
!	!	!	!LO:TX:t=P:problem:kreska pseudotaktowa	!	!	!
.	.	.	4A/	.	.	.
=32-	=32-	=32-	=32-	=32-	=32-	=32-
*	*lig	*	*	*	*	*
0ryy	1G\	-ri-	1G/	-ri-	.	.
.	.	.	.	.	2c/	-a
!	!	!	!	!	!LO:TX:t=P:problem:kreska pseudotaktowa	!
.	1A\	.	1F/	.	1d\	.
*	*Xlig	*	*	*	*	*
=33-	=33-	=33-	=33-	=33-	=33-	=33-
*	*lig	*	*	*	*	*
0ryy	1A\	-a	2E/	-a	2r	.
!	!	!	!LO:TX:t=P:problem:kreska pseudotaktowa	!	!	!
*	*	*	*	*	*	*ij
.	.	.	2e\	.	2c/	Aſ-
.	1G\	.	2d\	.	2d\	-sum-
.	.	.	1c\	.	2e\	.
!	!	!	!LO:SIC:v:t=custos B	!	!LO:TX:t=P:problem:kreska pseudotaktowa	!
*	*Xlig	*	*	*	*	*
=34-	=34-	=34-	=34-	=34-	=34-	=34-
0ryy	1F\	.	.	.	2f\	.
!	!	!	!LO:LB:g=original	!	!	!
!	!	!	!LO:TX:t=P:problem:kreska pseudotaktowa	!	!LO:SIC:v:t=custos e	!
.	.	.	2B\	.	2d\	-pta
!	!	!	!	!	!LO:LB:g=original	!
.	1E/	.	1c\	.	2e\	eſt
.	.	.	.	.	2.a\	Ma-
=35-	=35-	=35-	=35-	=35-	=35-	=35-
!	!LO:TX:t=P:problem:kreska pseudotaktowa	!	!	!	!	!
0ryy	1D/	.	2d\	in	.	.
.	.	.	.	.	4g\	.
.	.	.	4c\	.	1g\	-ri-
!	!	!	!LO:TX:t=P:problem:kreska pseudotaktowa	!	!	!
.	.	.	4B\	.	.	.
*	*lig	*	*	*	*	*
.	1D/	in	1A\	.	.	.
.	.	.	.	.	2f\	.
=36-	=36-	=36-	=36-	=36-	=36-	=36-
!	!	!	!	!	!LO:TX:t=P:problem:kreska pseudotaktowa	!
0ryy	1G\	.	1B\	.	1g\	-a
*	*Xlig	*	*	*	*	*Xij
*	*lig	*	*	*	*	*
.	1F\	.	2.A/	coe-	1r	.
.	.	.	4B\	.	.	.
=37-	=37-	=37-	=37-	=37-	=37-	=37-
!	!	!	!LO:TX:t=P:problem:kreska pseudotaktowa	!	!	!
*	*	*	*	*	*lig	*
0ryy	1E/	.	1c\	-lum,	1G/	in
*	*Xlig	*	*	*	*	*
*	*lig	*	*	*	*	*
.	1D/	.	2r	.	1d\	.
*	*	*	*	*ij	*	*
.	.	.	2G/	in	.	.
*	*	*	*	*	*Xlig	*
=38-	=38-	=38-	=38-	=38-	=38-	=38-
0ryy	1F\	.	2.A/	coe-	2.c/	coe-
.	.	.	8G/L	.	4B/	.
.	.	.	8F/J	.	.	.
!	!	!	!LO:TX:t=P:problem:kreska pseudotaktowa	!	!LO:TX:t=P:problem:kreska pseudotaktowa	!
*	*Xlig	*	*	*	*	*
*	*lig	*	*	*	*	*
.	1C/	c(ae)-	2.E/	.	4A/	.
.	.	.	.	.	4G/	.
.	.	.	.	.	1c\	.
.	.	.	4F/	.	.	.
=39-	=39-	=39-	=39-	=39-	=39-	=39-
!	!LO:SIC:v:t=custos C	!	!LO:TX:t=P:problem:kreska pseudotaktowa	!	!	!
0ryy	1D/	.	1G/	.	.	.
.	.	.	.	.	2B/	-lum
!	!LO:LB:g=original	!	!	!	!LO:TX:t=P:problem:kreska pseudotaktowa	!
*	*Xlig	*	*	*	*	*
.	1C/	-lum	2E/	.	1c\	.
.	.	.	2F/	.	.	.
=40-	=40-	=40-	=40-	=40-	=40-	=40-
*	*lig	*	*	*	*	*
!	!	!	!LO:TX:t=P:problem:kreska pseudotaktowa	!	!	!
0ryy	1G\	gau-	1D/	-lum	2d\	.
*	*	*	*	*Xij	*	*
.	.	.	.	.	1g\	.
!	!	!	!LO:SIC:v:t=custos d	!	!	!
.	1A\	.	2r	.	.	.
!	!	!	!LO:LB:g=original	!	!	!
.	.	.	1d\	gau-	2f\	.
!	!	!	!	!	!LO:TX:t=P:problem:kreska pseudotaktowa	!
*	*Xlig	*	*	*	*	*
=41-	=41-	=41-	=41-	=41-	=41-	=41-
0ryy	1G\	.	.	.	2g\	gau-
!	!	!	!LO:TX:t=P:problem:kreska pseudotaktowa	!	!	!
.	.	.	2c\	.	2e\	.
*	*lig	*	*	*	*	*
.	1A\	.	1d\	.	1f\	.
=42-	=42-	=42-	=42-	=42-	=42-	=42-
!	!	!	!	!	!LO:SIC:v:t=custos g	!
!	!	!	!	!	!LO:TX:t=P:problem:kreska pseudotaktowa	!
0ryy	1c\	.	2G/	-det	1e\	-det
.	.	.	1c\	.	.	.
*	*Xlig	*	*	*	*	*
*	*lig	*	*	*	*	*
.	1G\	.	.	.	2r	.
!	!	!	!	!	!LO:LB:g=original	!
*	*	*	*	*	*	*ij
.	.	.	4B/	.	2.g\	gau-
!	!	!	!LO:TX:t=P:problem:kreska pseudotaktowa	!	!	!
.	.	.	4A/	.	.	.
=43-	=43-	=43-	=43-	=43-	=43-	=43-
0ryy	1E/	.	2B\	.	.	.
.	.	.	.	.	4f\	.
.	.	.	2c\	.	4e\	.
.	.	.	.	.	4d\	.
!	!	!	!	!	!LO:TX:t=P:problem:kreska pseudotaktowa	!
*	*Xlig	*	*	*ij	*	*
!	!	!	!LO:TX:t=P:problem:kreska pseudotaktowa	!	!	!
.	1F\	.	1C/	gau-	4c/	.
.	.	.	.	.	4B/	.
.	.	.	.	.	1c\	.
=44-	=44-	=44-	=44-	=44-	=44-	=44-
!	!LO:TX:t=P:problem:kreska pseudotaktowa	!	!	!	!	!
0ryy	1G\	-det	2D/	.	.	.
!	!	!	!	!	!LO:TX:t=P:problem:kreska pseudotaktowa	!
.	.	.	1G/	.	2B/	.
*	*lig	*	*	*	*	*
.	1C/	ex-	.	.	1c\	-det
*	*	*	*	*	*	*Xij
!	!	!	!LO:TX:t=P:problem:kreska pseudotaktowa	!	!	!
.	.	.	2F/	.	.	.
=45-	=45-	=45-	=45-	=45-	=45-	=45-
0ryy	1D/	.	1G/	-det	2B/	ex-
.	.	.	.	.	1d\	-er-
*	*Xlig	*	*	*Xij	*	*
.	0F\	-er-	2F/	ex-	.	.
.	.	.	1A\	-er-	4c/	-ti-
!	!	!	!	!	!LO:TX:t=P:problem:kreska pseudotaktowa	!
.	.	.	.	.	4B/	.
=46-	=46-	=46-	=46-	=46-	=46-	=46-
0ryy	.	.	.	.	2A/	.
.	.	.	4G/	-ci-	2B/	.
!	!	!	!LO:TX:t=P:problem:kreska pseudotaktowa	!	!	!
.	.	.	4F/	.	.	.
*	*lig	*	*	*	*	*
.	1G\	.	1.E/	.	2c/	.
.	.	.	.	.	2.e\	.
=47-	=47-	=47-	=47-	=47-	=47-	=47-
0ryy	1A\	.	.	.	.	.
.	.	.	.	.	4d\	.
.	.	.	2F/	.	1d\	.
!	!	!	!LO:TX:t=P:problem:kreska pseudotaktowa	!	!	!
*	*Xlig	*	*	*	*	*
*	*lig	*	*	*	*	*
.	1G\	.	1G/	.	.	.
!	!	!	!	!	!LO:TX:t=P:problem:kreska pseudotaktowa	!
.	.	.	.	.	2c/	.
=48-	=48-	=48-	=48-	=48-	=48-	=48-
!	!	!	!LO:SIC:v:t=custos F	!	!	!
!	!	!	!LO:TX:t=P:problem:kreska pseudotaktowa	!	!	!
0ryy	1A\	.	1F/	-tus,	2d\	-tus
*	*	*	*	*	*	*ij
.	.	.	.	.	1f\	gau-
*	*Xlig	*	*	*	*	*
.	1A\	-ci-	2r	.	.	.
!	!	!	!LO:LB:g=original	!	!	!
!	!	!	!LO:TX:t=P:problem:kreska pseudotaktowa	!	!	!
*	*	*	*	*ij	*	*
.	.	.	2F/	ex-	4e\	.
!	!	!	!	!	!LO:SIC:v:t=custos e	!
!	!	!	!	!	!LO:TX:t=P:problem:kreska pseudotaktowa	!
.	.	.	.	.	4d\	.
!	!	!	!	!	!LO:LB:g=original	!
=49-	=49-	=49-	=49-	=49-	=49-	=49-
*	*lig	*	*	*	*	*
0ryy	1c\	.	2G/	.	2e\	-det
.	.	.	2A/	.	1a\	ex-
!	!	!	!LO:TX:t=P:problem:kreska pseudotaktowa	!	!	!
.	1A\	.	1F/	.	.	.
.	.	.	.	.	4g\	.
.	.	.	.	.	4f\	.
!	!	!	!	!	!LO:TX:t=P:problem:kreska pseudotaktowa	!
*	*Xlig	*	*	*	*	*
=50-	=50-	=50-	=50-	=50-	=50-	=50-
*	*lig	*	*	*	*	*
0ryy	1c\	.	2.G/	-er-	1e\	.
.	.	.	4A/	.	.	.
.	1B\	.	4B/	.	2d\	.
.	.	.	4c\	.	.	.
.	.	.	1d\	.	1g\	-er-
*	*Xlig	*	*	*	*	*
=51-	=51-	=51-	=51-	=51-	=51-	=51-
0ryy	1A\	.	.	.	.	.
!	!	!	!LO:TX:t=P:problem:kreska pseudotaktowa	!	!	!
.	.	.	2d\	-ci-	2f\	-ti-
!	!LO:SIC:v:t=custos G	!	!	!	!LO:TX:t=P:problem:kreska pseudotaktowa	!
.	1G\	.	2B\	-tus	0g\	-tus
*	*	*	*	*Xij	*	*Xij
.	.	.	1e\	an-	.	.
!	!LO:PB:g=original	!	!	!	!	!
=52-	=52-	=52-	=52-	=52-	=52-	=52-
!	!LO:TX:t=P:problem:kreska pseudotaktowa	!	!	!	!	!
0ryy	1G\	-tus	.	.	.	.
!	!	!	!LO:TX:t=P:problem:kreska pseudotaktowa	!	!	!
.	.	.	2d\	-ge-	.	.
.	1G\	an-	2.c\	-lo-	2r	.
.	.	.	.	.	1e\	an-
.	.	.	4d\	.	.	.
=53-	=53-	=53-	=53-	=53-	=53-	=53-
*	*lig	*	*	*	*	*
0ryy	1A\	-ge-	2e\	.	.	.
!	!	!	!LO:TX:t=P:problem:kreska pseudotaktowa	!	!	!
.	.	.	2d\	.	2f\	-ge-
!	!	!	!LO:TX:t=P:problem:kreska pseudotaktowa	!	!	!
.	1c\	.	0G/	.	1e\	-lo-
*	*Xlig	*	*	*	*	*
=54-	=54-	=54-	=54-	=54-	=54-	=54-
*	*lig	*	*	*	*	*
!	!	!	!	!	!LO:TX:t=P:problem:kreska pseudotaktowa	!
0ryy	1B\	-lo-	.	.	0d\	-rum,
.	1A\	.	2F/	.	.	.
.	.	.	4E/	.	.	.
!	!	!	!LO:SIC:v:t=custos E	!	!	!
.	.	.	4D/	.	.	.
*	*Xlig	*	*	*	*	*
!	!	!	!LO:PB:g=original	!	!	!
=55-	=55-	=55-	=55-	=55-	=55-	=55-
*	*lig	*	*	*	*	*
0ryy	1c\	.	2E/	.	1r	.
.	.	.	2F/	.	.	.
.	1B\	.	1G/	.	2r	.
*	*	*	*	*	*	*ij
.	.	.	.	.	2d\	an-
!	!	!	!	!	!LO:TX:t=P:problem:kreska pseudotaktowa	!
*	*Xlig	*	*	*	*	*
=56-	=56-	=56-	=56-	=56-	=56-	=56-
!	!	!	!LO:TX:t=P:problem:kreska pseudotaktowa	!	!	!
0ryy	1A\	.	1D/	-rum	1.d\	-ge-
*	*	*	*	*ij	*	*
.	1G\	.	2d\	an-	.	.
!	!	!	!	!	!LO:TX:t=P:problem:kreska pseudotaktowa	!
.	.	.	2B\	-ge-	2e\	.
=57-	=57-	=57-	=57-	=57-	=57-	=57-
0ryy	1F\	.	0c\	-lo-	2.f\	.
.	.	.	.	.	4e\	.
*	*lig	*	*	*	*	*
.	1A\	.	.	.	4f\	.
!	!	!	!	!	!LO:SIC:v:t=custos a	!
.	.	.	.	.	4g\	.
!	!	!	!	!	!LO:PB:g=original	!
.	.	.	.	.	1a\	.
=58-	=58-	=58-	=58-	=58-	=58-	=58-
!	!	!	!LO:TX:t=P:problem:kreska pseudotaktowa	!	!	!
0ryy	1F\	.	1d\	.	.	.
.	.	.	.	.	4g\	.
.	.	.	.	.	4f\	.
!	!	!	!	!	!LO:TX:t=P:problem:kreska pseudotaktowa	!
*	*Xlig	*	*	*	*	*
*	*lig	*	*	*	*	*
.	1G\	.	1B\	.	2.e\	.
.	.	.	.	.	4f\	.
=59-	=59-	=59-	=59-	=59-	=59-	=59-
0ryy	1E/	.	2c\	-rum	1g\	-lo-
.	.	.	1e\	an-	.	.
*	*Xlig	*	*	*	*	*
!	!	!	!	!	!LO:TX:t=P:problem:kreska pseudotaktowa	!
.	1F\	.	.	.	1a\	-rum
*	*	*	*	*	*	*Xij
.	.	.	4d\	.	.	.
!	!	!	!LO:TX:t=P:problem:kreska pseudotaktowa	!	!	!
.	.	.	4c\	.	.	.
=60-	=60-	=60-	=60-	=60-	=60-	=60-
0ryy	0G\	.	2.B\	.	1.d\	an-
.	.	.	4c\	.	.	.
.	.	.	2d\	.	.	.
.	.	.	1c\	.	2e\	.
=61-	=61-	=61-	=61-	=61-	=61-	=61-
0ryy	1F\	.	.	.	2f\	.
!	!	!	!LO:TX:t=P:problem:kreska pseudotaktowa	!	!LO:TX:t=P:problem:kreska pseudotaktowa	!
.	.	.	2B\	-ge-	2d\	-ge-
.	1E/	.	2c\	.	2e\	.
!	!	!	!LO:SIC:v:t=custos E	!	!	!
.	.	.	1.G/	-lo-	1c\	.
=62-	=62-	=62-	=62-	=62-	=62-	=62-
0ryy	1D/	.	.	.	.	.
!	!	!	!	!	!LO:TX:t=P:problem:kreska pseudotaktowa	!
.	.	.	.	.	2B/	.
!	!	!	!LO:LB:g=original	!	!	!
!	!	!	!LO:TX:t=P:problem:kreska pseudotaktowa	!	!	!
.	1C/	.	1E/	-rum	2c/	-lo-
*	*	*	*	*Xij	*	*
.	.	.	.	.	2e\	-rum
=63-	=63-	=63-	=63-	=63-	=63-	=63-
!	!LO:SIC:v:t=custos A	!	!	!	!	!
0ryy	1D/	.	2r	.	2d\	.
!	!	!	!LO:TX:t=P:problem:kreska pseudotaktowa	!	!	!
*	*	*	*	*	*	*ij
.	.	.	2A/	an-	1f\	an-
!	!LO:LB:g=original	!	!	!	!	!
.	0F\	.	4F/	-ge-	.	.
.	.	.	4G/	.	.	.
!	!	!	!LO:TX:t=P:problem:kreska pseudotaktowa	!	!LO:TX:t=P:problem:kreska pseudotaktowa	!
.	.	.	2A/	.	2e\	.
=64-	=64-	=64-	=64-	=64-	=64-	=64-
0ryy	.	.	2D/	.	2d\	.
.	.	.	1F/	.	2c/	.
*	*lig	*	*	*	*	*
!	!	!	!	!	!LO:SIC:v:t=custos A	!
.	1G\	.	.	.	1B-X/	.
!	!	!	!LO:TX:t=P:problem:kreska pseudotaktowa	!	!	!
.	.	.	2E/	.	.	.
!	!	!	!	!	!LO:LB:g=original	!
=65-	=65-	=65-	=65-	=65-	=65-	=65-
0ryy	1A\	.	1F/	-lo-	2A/	-ge-
.	.	.	.	.	2c/	.
!	!	!	!	!	!LO:TX:t=P:problem:kreska pseudotaktowa	!
*	*Xlig	*	*	*	*	*
*	*lig	*	*	*	*	*
!	!	!	!LO:TX:t=P:problem:kreska pseudotaktowa	!	!	!
.	1G\	.	1C/	-rum;	2.c/	-lo-
.	.	.	.	.	4Bny/	.
=66-	=66-	=66-	=66-	=66-	=66-	=66-
0ryy	1F\	.	1r	.	2A/	-rum
.	.	.	.	.	2.a\	an-
*	*Xlig	*	*	*	*	*
.	1E/	.	2r	.	.	.
.	.	.	.	.	4g\	.
!	!	!	!LO:TX:t=P:problem:kreska pseudotaktowa	!	!	!
*	*	*	*	*ij	*	*
.	.	.	2G/	an-	4e\	.
!	!	!	!	!	!LO:TX:t=P:problem:kreska pseudotaktowa	!
.	.	.	.	.	4f\	.
=67-	=67-	=67-	=67-	=67-	=67-	=67-
*	*lig	*	*	*	*	*
0ryy	1D/	.	1G/	-ge-	2.g\	.
!	!	!	!	!	!LO:TX:t=P:problem:kreska pseudotaktowa	!
.	.	.	.	.	4f\	.
.	1E/	.	0G/	-lo-	4e\	-ge-
.	.	.	.	.	4d\	.
.	.	.	.	.	1c\	-lo-
*	*Xlig	*	*	*	*	*
=68-	=68-	=68-	=68-	=68-	=68-	=68-
*	*lig	*	*	*	*	*
0ryy	1D/	.	.	.	.	.
.	.	.	.	.	2B/	.
!	!	!	!	!	!LO:TX:t=P:problem:kustosz dotyczy powrotu na początek, na Alleluja	!
!	!	!	!LO:SIC:v:t=custos G	!	!LO:SIC:v:t=custos c	!
.	1C/	.	0.Gl\;	-rum	0.cl\;	-rum
*	*Xlig	*	*	*Xij	*	*Xij
=69-	=69-	=69-	=69-	=69-	=69-	=69-
!	!LO:SIC:v:t=custos G	!	!	!	!	!
0ryy	0Cl/	-rum,	.	.	.	.
==	==	==	==	==	==	==
*-	*-	*-	*-	*-	*-	*-
!!!system-decoration: [s1,s2,s3,s4]
!!!RDF**kern: l = terminal long
!!!ENC: Mateusz Solarz
!!!END: 2022-02-24
!!!AIN: 3 empty 1 tenor
!!!ENC: Leszek Kubiak
!!!END: 2022-03-12
